_includes/book.svg

<svg
   xmlns:dc="http://purl.org/dc/elements/1.1/"
   xmlns:cc="http://creativecommons.org/ns#"
   xmlns:rdf="http://www.w3.org/1999/02/22-rdf-syntax-ns#"
   xmlns:svg="http://www.w3.org/2000/svg"
   xmlns="http://www.w3.org/2000/svg"
   xmlns:sodipodi="http://sodipodi.sourceforge.net/DTD/sodipodi-0.dtd"
   xmlns:inkscape="http://www.inkscape.org/namespaces/inkscape"
   width="16"
   height="16"
   preserveAspectRatio="xMidYMid slice"
   viewBox="0 0 16 16"
   version="1.1"
   id="svg1475"
   sodipodi:docname="gtk-rs-book.svg"
   inkscape:version="1.0.2 (e86c870879, 2021-01-15)">
  <metadata
     id="metadata1481">
    <rdf:RDF>
      <cc:Work
         rdf:about="">
        <dc:format>image/svg+xml</dc:format>
        <dc:type
           rdf:resource="http://purl.org/dc/dcmitype/StillImage" />
      </cc:Work>
    </rdf:RDF>
  </metadata>
  <defs
     id="defs1479" />
  <sodipodi:namedview
     pagecolor="#ffffff"
     bordercolor="#666666"
     borderopacity="1"
     objecttolerance="10"
     gridtolerance="10"
     guidetolerance="10"
     inkscape:pageopacity="0"
     inkscape:pageshadow="2"
     inkscape:window-width="1280"
     inkscape:window-height="1376"
     id="namedview1477"
     showgrid="false"
     inkscape:zoom="15.75"
     inkscape:cx="10.006804"
     inkscape:cy="-17.67531"
     inkscape:window-x="26"
     inkscape:window-y="23"
     inkscape:window-maximized="0"
     inkscape:current-layer="svg1475" />
  <path
     id="path1467"
     style="fill:#474747;marker:none"
     d="M 1.96875 0 C 0.88015399 -0.00277492 -0.00277492 0.88015399 0 1.96875 L 0 14.029297 C 0 15.121297 0.87775 16 1.96875 16 L 14 16 C 14.554 16 15 15.554 15 15 L 15 4 C 15 3.446 14.554 3 14 3 L 2 3 C 1.446 3 1 2.554 1 2 C 1 1.446 1.446 1 2 1 L 14 1 C 14 0.441 13.559 0 13 0 L 1.96875 0 z M 8 4.0625 C 10.727249 4.0613949 12.938053 6.2727507 12.9375 9 C 12.938605 11.72764 10.72764 13.938605 8 13.9375 C 5.2723602 13.938605 3.0613946 11.72764 3.0625 9 C 3.0613946 6.2723602 5.2723602 4.0613946 8 4.0625 z M 5.1347656 6.8710938 A 0.81794932 0.81794932 0 0 0 4.7539062 7.7910156 A 0.81794932 0.81794932 0 0 0 5.5429688 8.3964844 L 5.5429688 9.0097656 C 5.5429688 9.3461476 5.8198681 9.6230469 6.15625 9.6230469 L 6.3085938 9.6230469 L 6.3535156 9.7050781 L 5.953125 10.033203 L 5.7480469 10.033203 C 5.4116653 10.033203 5.1347656 10.310102 5.1347656 10.646484 L 5.1347656 10.849609 L 5.1347656 11.054688 L 5.5429688 11.054688 L 5.5429688 10.849609 L 5.5429688 10.646484 C 5.5429688 10.531129 5.6326916 10.441406 5.7480469 10.441406 L 6.0625 10.441406 A 0.81794929 0.81794929 0 0 0 6.1757812 10.59375 C 6.04267 10.706676 5.953125 10.868283 5.953125 11.054688 L 5.953125 11.259766 L 5.953125 11.462891 L 6.3613281 11.462891 L 6.3613281 11.259766 L 6.3613281 11.054688 C 6.3613281 10.939331 6.4510509 10.849609 6.5664062 10.849609 L 6.7695312 10.849609 L 7.1796875 10.849609 L 7.3847656 10.849609 L 9.2246094 10.849609 L 9.4296875 10.849609 C 9.5450428 10.849609 9.6328125 10.93933 9.6328125 11.054688 L 9.6328125 11.259766 L 9.6328125 11.462891 L 10.042969 11.462891 L 10.042969 11.259766 L 10.042969 11.054688 C 10.042969 10.868283 9.9514707 10.706676 9.8183594 10.59375 A 0.81794929 0.81794929 0 0 0 9.9316406 10.441406 L 10.246094 10.441406 C 10.361449 10.441406 10.451172 10.531127 10.451172 10.646484 L 10.451172 10.849609 L 10.451172 11.054688 L 10.859375 11.054688 L 10.859375 10.849609 L 10.859375 10.646484 C 10.859375 10.310102 10.582476 10.033203 10.246094 10.033203 L 10.042969 10.033203 L 9.6425781 9.7050781 L 9.6875 9.6230469 L 10.246094 9.6230469 C 10.582476 9.6230469 10.859375 9.3461476 10.859375 9.0097656 L 10.859375 8.6953125 A 0.81794932 0.81794932 0 0 0 11.242188 8.1992188 A 0.81794932 0.81794932 0 0 0 10.859375 7.2792969 L 10.451172 7.9882812 L 10.042969 7.2792969 A 0.81794932 0.81794932 0 0 0 9.6601562 8.1992188 A 0.81794932 0.81794932 0 0 0 10.451172 8.8046875 L 10.451172 9.0097656 C 10.451172 9.1251235 10.361452 9.2148438 10.246094 9.2148438 L 9.7695312 9.2148438 L 9.390625 9.1015625 L 9.4433594 8.5859375 L 8.9296875 8.6386719 L 8.7792969 8.1445312 L 8.7792969 8.1425781 L 8.3242188 8.3886719 L 7.9980469 7.9882812 L 7.6699219 8.3886719 L 7.2148438 8.1425781 L 7.0664062 8.6386719 L 6.5507812 8.5859375 L 6.6035156 9.1015625 L 6.2265625 9.2148438 L 6.15625 9.2148438 C 6.0408921 9.2148438 5.953125 9.1251265 5.953125 9.0097656 L 5.953125 8.2851562 A 0.81794932 0.81794932 0 0 0 6.3339844 7.7910156 A 0.81794932 0.81794932 0 0 0 5.953125 6.8710938 L 5.5429688 7.578125 L 5.1347656 6.8710938 z M 7.3671875 10.033203 A 0.20448732 0.20448732 0 0 1 7.3789062 10.033203 A 0.20448732 0.20448732 0 0 1 7.3847656 10.033203 A 0.20448732 0.20448732 0 0 1 7.5878906 10.236328 A 0.20448732 0.20448732 0 0 1 7.3847656 10.441406 A 0.20448732 0.20448732 0 0 1 7.1796875 10.236328 A 0.20448732 0.20448732 0 0 1 7.3671875 10.033203 z M 8.59375 10.033203 A 0.20448732 0.20448732 0 0 1 8.6054688 10.033203 A 0.20448732 0.20448732 0 0 1 8.6113281 10.033203 A 0.20448732 0.20448732 0 0 1 8.8144531 10.236328 A 0.20448732 0.20448732 0 0 1 8.6113281 10.441406 A 0.20448732 0.20448732 0 0 1 8.40625 10.236328 A 0.20448732 0.20448732 0 0 1 8.59375 10.033203 z " />
</svg>

<svg preserveAspectRatio="xMidYMid slice" version="1.1" viewBox="0 0 16 16" xmlns="http://www.w3.org/2000/svg"><path d="m1.9688 0c-1.0886-0.0027749-1.9715 0.88015-1.9688 1.9688v12.061c0 1.092 0.87775 1.9707 1.9688 1.9707h12.031c0.554 0 1-0.446 1-1v-11c0-0.554-0.446-1-1-1h-12c-0.554 0-1-0.446-1-1s0.446-1 1-1h12c0-0.559-0.441-1-1-1h-11.031zm6.0312 4.0625c2.7272-0.0011051 4.9381 2.2103 4.9375 4.9375 0.001105 2.7276-2.2099 4.9386-4.9375 4.9375-2.7276 0.001105-4.9386-2.2099-4.9375-4.9375-0.0011054-2.7276 2.2099-4.9386 4.9375-4.9375zm-2.8652 2.8086a0.81795 0.81795 0 0 0-0.38086 0.91992 0.81795 0.81795 0 0 0 0.78906 0.60547v0.61328c0 0.33638 0.2769 0.61328 0.61328 0.61328h0.15234l0.044922 0.082031-0.40039 0.32812h-0.20508c-0.33638 0-0.61328 0.2769-0.61328 0.61328v0.20312 0.20508h0.4082v-0.20508-0.20312c0-0.11536 0.089723-0.20508 0.20508-0.20508h0.31445a0.81795 0.81795 0 0 0 0.11328 0.15234c-0.13311 0.11293-0.22266 0.27453-0.22266 0.46094v0.20508 0.20312h0.4082v-0.20312-0.20508c0-0.11536 0.089723-0.20508 0.20508-0.20508h0.20312 0.41016 0.20508 1.8398 0.20508c0.11536 0 0.20312 0.089721 0.20312 0.20508v0.20508 0.20312h0.41016v-0.20312-0.20508c0-0.1864-0.091498-0.34801-0.22461-0.46094a0.81795 0.81795 0 0 0 0.11328-0.15234h0.31445c0.11536 0 0.20508 0.089721 0.20508 0.20508v0.20312 0.20508h0.4082v-0.20508-0.20312c0-0.33638-0.2769-0.61328-0.61328-0.61328h-0.20312l-0.40039-0.32812 0.044922-0.082031h0.55859c0.33638 0 0.61328-0.2769 0.61328-0.61328v-0.31445a0.81795 0.81795 0 0 0 0.38281-0.49609 0.81795 0.81795 0 0 0-0.38281-0.91992l-0.4082 0.70898-0.4082-0.70898a0.81795 0.81795 0 0 0-0.38281 0.91992 0.81795 0.81795 0 0 0 0.79102 0.60547v0.20508c0 0.11536-0.08972 0.20508-0.20508 0.20508h-0.47656l-0.37891-0.11328 0.052734-0.51562-0.51367 0.052734-0.15039-0.49414v-0.0019531l-0.45508 0.24609-0.32617-0.40039-0.32812 0.40039-0.45508-0.24609-0.14844 0.49609-0.51562-0.052734 0.052734 0.51562-0.37695 0.11328h-0.070312c-0.11536 0-0.20312-0.089717-0.20312-0.20508v-0.72461a0.81795 0.81795 0 0 0 0.38086-0.49414 0.81795 0.81795 0 0 0-0.38086-0.91992l-0.41016 0.70703-0.4082-0.70703zm2.2324 3.1621a0.20449 0.20449 0 0 1 0.011719 0 0.20449 0.20449 0 0 1 0.0058594 0 0.20449 0.20449 0 0 1 0.20312 0.20312 0.20449 0.20449 0 0 1-0.20312 0.20508 0.20449 0.20449 0 0 1-0.20508-0.20508 0.20449 0.20449 0 0 1 0.1875-0.20312zm1.2266 0a0.20449 0.20449 0 0 1 0.011719 0 0.20449 0.20449 0 0 1 0.0058593 0 0.20449 0.20449 0 0 1 0.20312 0.20312 0.20449 0.20449 0 0 1-0.20312 0.20508 0.20449 0.20449 0 0 1-0.20508-0.20508 0.20449 0.20449 0 0 1 0.1875-0.20312z" fill="#474747"/></svg>
